X:853
T:West Fork Girls
S:John Greig, Edinburgh
Z:Nigel Gatherer
L:1/8
M:4/4
K:D
f4 d4  | g4 B4  | e3 d c2A2 | ABAG F2D2 |
f4 d4  | g4 B4  | e3 d c2A2 | ABcA d4  :|
A4 F3A | d4 F3A | G2F2 E3 F | G2F2 E4   |
e3d c2A2 | ABAG F2D2 | d2d2 efge | fdec d4 :|
<end>
<start>
